svgs/thin/user-unlock.svg

<svg xmlns="http://www.w3.org/2000/svg" viewBox="0 0 640 512"><!-- Font Awesome Pro 6.0.0-alpha2 by @fontawesome - https://fontawesome.com License - https://fontawesome.com/license (Commercial License) --><path d="M224 256C294.695 256 352 198.691 352 128S294.695 0 224 0C153.312 0 96 57.309 96 128S153.312 256 224 256ZM224 16C285.758 16 336 66.242 336 128S285.758 240 224 240S112 189.758 112 128S162.242 16 224 16ZM320 496H41.438C27.406 496 16 485.219 16 472C16 388.188 87.406 320 175.156 320H272.844C288.188 320 303.344 322.062 317.812 326.156C322.188 327.406 326.5 324.875 327.688 320.656C328.906 316.406 326.438 311.969 322.188 310.781C306.281 306.281 289.656 304 272.844 304H175.156C78.562 304 0 379.375 0 472C0 494.062 18.594 512 41.438 512H320C324.406 512 328 508.406 328 504S324.406 496 320 496ZM576 288H448V208C448 181.531 469.531 160 496 160S544 181.531 544 208V216C544 220.406 547.594 224 552 224S560 220.406 560 216V208C560 172.719 531.281 144 496 144S432 172.719 432 208V288H416C380.654 288 352 316.652 352 352V448C352 483.346 380.654 512 416 512H576C611.346 512 640 483.346 640 448V352C640 316.652 611.346 288 576 288ZM624 448C624 474.467 602.467 496 576 496H416C389.533 496 368 474.467 368 448V352C368 325.533 389.533 304 416 304H576C602.467 304 624 325.533 624 352V448ZM496 384C487.164 384 480 391.162 480 400C480 408.836 487.164 416 496 416S512 408.836 512 400C512 391.162 504.836 384 496 384Z"/></svg>

<svg xmlns="http://www.w3.org/2000/svg" viewBox="0 0 640 512"><!--! Font Awesome Pro 6.0.0-alpha3 by @fontawesome - https://fontawesome.com License - https://fontawesome.com/license (Commercial License) --><path d="M224 256c70.7 0 128-57.31 128-128S294.7 0 224 0C153.3 0 96 57.31 96 128S153.3 256 224 256zM224 16c61.76 0 112 50.24 112 112S285.8 240 224 240S112 189.8 112 128S162.2 16 224 16zM320 496H41.44C27.41 496 16 485.2 16 472C16 388.2 87.41 320 175.2 320h97.69c15.34 0 30.5 2.062 44.97 6.156c4.375 1.25 8.688-1.281 9.875-5.5c1.219-4.25-1.25-8.688-5.5-9.875C306.3 306.3 289.7 304 272.8 304H175.2C78.56 304 0 379.4 0 472C0 494.1 18.59 512 41.44 512H320c4.406 0 8-3.594 8-8S324.4 496 320 496zM576 288h-128V208C448 181.5 469.5 160 496 160S544 181.5 544 208v8C544 220.4 547.6 224 552 224s8-3.594 8-8V208c0-35.28-28.72-64-64-64s-64 28.72-64 64V288H416c-35.35 0-64 28.65-64 64v96c0 35.35 28.65 64 64 64h160c35.35 0 64-28.65 64-64v-96C640 316.7 611.3 288 576 288zM624 448c0 26.47-21.53 48-48 48h-160c-26.47 0-48-21.53-48-48v-96c0-26.47 21.53-48 48-48h160c26.47 0 48 21.53 48 48V448zM496 384c-8.836 0-16 7.162-16 16c0 8.836 7.164 16 16 16s16-7.164 16-16C512 391.2 504.8 384 496 384z"/></svg>
